src/assets/images/001-arrow-2.svg

<svg width="99" height="24" viewBox="0 0 99 24" fill="none" xmlns="http://www.w3.org/2000/svg">
<path d="M90.4303 17.3569C84.3448 15.0695 78.1235 13.0655 71.8379 11.4142C48.3942 5.48337 22.9371 5.2115 0.760864 15.9932C2.36445 15.1926 3.75121 14.0441 5.2857 13.315C11.4928 10.3271 18.0644 8.10648 24.8599 6.65545C46.3689 2.14276 68.3639 5.56696 88.9412 12.4604C88.5837 12.1149 88.2978 11.8385 87.9404 11.493C85.1526 8.79811 82.3649 6.10321 79.508 3.47979C79.8654 3.82529 83.6039 0.387036 84.0328 0.801636C87.2471 3.77055 90.4614 6.73948 93.5375 9.85136C95.1101 11.3716 96.7518 12.8203 98.117 14.5549C98.8342 15.3865 98.7032 15.9512 98.2195 16.4516C98.2886 16.3801 98.3601 16.4492 98.4292 16.3777C98.291 16.5207 98.1504 16.5231 98.0122 16.666C97.874 16.809 97.7334 16.8114 97.5952 16.9543C96.4825 17.6763 95.2339 18.6818 93.9758 19.125C93.9067 19.1964 93.7661 19.1988 93.697 19.2703C91.9481 19.7921 89.6249 19.6205 87.8021 19.9327C83.8754 20.5617 80.0249 21.5409 76.253 23.011C77.859 22.351 79.1004 20.9238 80.7778 20.3329C83.6419 19.2297 86.5798 18.3362 89.594 17.793C89.7989 17.4379 90.1492 17.3617 90.4303 17.3569ZM93.1657 16.959L93.3063 16.9567L93.2348 16.8876C93.2348 16.8876 93.2348 16.8876 93.1657 16.959Z" fill="white"/>
</svg>

<svg xmlns="http://www.w3.org/2000/svg" width="99" height="24" fill="none" viewBox="0 0 99 24"><path fill="#fff" d="M90.43 17.357a191 191 0 0 0-18.592-5.943c-23.444-5.93-48.9-6.202-71.077 4.58 1.603-.801 2.99-1.95 4.525-2.679 6.207-2.988 12.778-5.209 19.574-6.66C46.369 2.143 68.364 5.567 88.94 12.46l-1-.967c-2.788-2.695-5.576-5.39-8.433-8.013.357.345 4.096-3.093 4.525-2.678 3.214 2.969 6.428 5.937 9.504 9.05 1.573 1.52 3.215 2.968 4.58 4.703.717.832.586 1.396.102 1.897.07-.072.141-.003.21-.074-.138.143-.279.145-.417.288s-.279.145-.417.288c-1.112.722-2.361 1.728-3.62 2.171-.068.071-.209.074-.278.145-1.749.522-4.072.35-5.895.663-3.927.629-7.777 1.608-11.549 3.078 1.606-.66 2.847-2.087 4.525-2.678 2.864-1.103 5.802-1.997 8.816-2.54.205-.355.555-.431.836-.436m2.736-.398.14-.002-.071-.07z"/></svg>
